packages/calcite-ui-icons/icons/collapse-entities-32.svg

<?xml version="1.0" encoding="UTF-8"?><svg id="icons" xmlns="http://www.w3.org/2000/svg" viewBox="0 0 32 32"><defs><style>.cls-1{fill:none;}</style></defs><path d="M5,5c0-1.6543,1.3457-3,3-3s2.99,1.3457,2.99,3-1.3357,3-2.99,3-3-1.3457-3-3ZM5,19c-1.6543,0-3-1.3457-3-3s1.3457-3,3-3,2.99,1.3457,2.99,3-1.3357,3-2.99,3ZM5,18c1.10254,0,2-.89746,2-2s-.89746-2-2-2-2,.89746-2,2,.89746,2,2,2ZM8,23c-1.6543,0-3,1.3457-3,3s1.3457,3,3,3,2.99-1.3457,2.99-3-1.3357-3-2.99-3ZM30,16c0,2.20605-1.79395,4-4,4s-4-1.79395-4-4,1.79395-4,4-4,4,1.79395,4,4ZM29,16c0-1.6543-1.3457-3-3-3s-3,1.3457-3,3,1.3457,3,3,3,3-1.3457,3-3ZM15.64648,13.35352l2.64648,2.64648h-8.29297v1h8.29297l-2.64648,2.64648.70703.70703,3.85352-3.85352-3.85352-3.85352-.70703.70703Z"/><rect class="cls-1" width="32" height="32"/></svg>

<svg xmlns="http://www.w3.org/2000/svg" viewBox="0 0 32 32"><path d="M5 5c0-1.654 1.346-3 3-3s2.99 1.346 2.99 3S9.654 8 8 8 5 6.654 5 5zm0 14c-1.654 0-3-1.346-3-3s1.346-3 3-3 2.99 1.346 2.99 3S6.654 19 5 19zm0-1c1.103 0 2-.897 2-2s-.897-2-2-2-2 .897-2 2 .897 2 2 2zm3 5c-1.654 0-3 1.346-3 3s1.346 3 3 3 2.99-1.346 2.99-3S9.654 23 8 23zm22-7c0 2.206-1.794 4-4 4s-4-1.794-4-4 1.794-4 4-4 4 1.794 4 4zm-1 0c0-1.654-1.346-3-3-3s-3 1.346-3 3 1.346 3 3 3 3-1.346 3-3zm-13.354-2.646L18.293 16H10v1h8.293l-2.647 2.646.708.708 3.853-3.854-3.853-3.854-.708.708z"/><path fill="none" d="M0 0h32v32H0z"/></svg>
